packages/kaspersky-hexa-ui-icons/src/iconsSVGs/24/Restore.svg

<svg width="24" height="24" viewBox="0 0 24 24" fill="none" xmlns="http://www.w3.org/2000/svg">
<path d="M5.53572 7C7.02342 5.1723 9.30959 4 11.8771 4C16.3761 4 20 7.59446 20 12C20 16.4055 16.3761 20 11.8771 20C8.02991 20 4.81767 17.3683 3.97231 13.8501C3.84328 13.3131 3.30335 12.9824 2.76635 13.1114C2.22935 13.2405 1.89863 13.7804 2.02766 14.3174C3.08816 18.7309 7.1016 22 11.8771 22C17.455 22 22 17.5356 22 12C22 6.46441 17.455 2 11.8771 2C8.69721 2 5.85666 3.44932 3.99998 5.71879V4C3.99998 3.44772 3.55227 3 2.99998 3C2.4477 3 1.99998 3.44772 1.99998 4V8C1.99998 8.55228 2.4477 9 2.99998 9H6.99998C7.55227 9 7.99998 8.55228 7.99998 8C7.99998 7.44772 7.55227 7 6.99998 7H5.53572Z" fill="black"/>
</svg>

<svg xmlns="http://www.w3.org/2000/svg" width="24" height="24" fill="none" viewBox="0 0 24 24"><path d="M0 24h24V0H0z"/><path fill="#000" d="M5.536 7c1.4877-1.8277 3.7738-3 6.3413-3 4.499 0 8.1229 3.5945 8.1229 8s-3.6239 8-8.1229 8c-3.8471 0-7.0594-2.6317-7.9047-6.1499-.129-.537-.669-.8677-1.206-.7387s-.8677.669-.7387 1.206C3.0884 18.7309 7.1019 22 11.8773 22c5.5779 0 10.1229-4.4644 10.1229-10S17.4552 2 11.8773 2c-3.1798 0-6.0204 1.4493-7.877 3.7188V4c0-.5523-.4478-1-1-1-.5524 0-1 .4477-1 1v4c0 .5523.4476 1 1 1h4c.5522 0 1-.4477 1-1s-.4478-1-1-1z"/></svg>
